X: 4
T: The Ashplant
R: reel
M: 4/4
L: 1/8
K: Edor
|:GA|BE E2 BAGA|BE E2 G3A| BE E2 BABd|(3gfe dB A2 GA|
BE E2 BAGA|BE E2 G3A|B2 BA (3Bcd ef|gedB A2GA||
|:B2 eB gBeB|B2 dB ADFA|B2 eB g3a|gedB A2 GA|
B2 eB gBeB|B2 dB ADFA|(3Bcd ef g3a|gedB A2GA||


Tune 726	Setting 13798

